!!!OTL-incipit: SEYD LUSTIG UND FROEHLICH, IHR HANDWERKSGESELLEN
!!!ARE: Europa, Mitteleuropa, Deutschland
!!!SCT: Z0239
!!!TXL: @@DE
!!!YEM: Copyright 1995, estate of Helmut Schaffrath.
**kern	**text
*ICvox	*
*M3/4	*
*k[b-]	*
*F:	*
!LO:TX:a:t=Mündlich.	!
!LO:TX:a:t=Handwerksburſchenlied.	!
{8f	Seyd
8a	lu-
4cc	-ſtig
8ccL	und
8b-J	.
=1	=1
(4a	fröh-
4b-/)	.
4cc}	-lich,
=2	=2
{8ccL	ihr
8ccJ	.
8ddL	Handwerks-
8ccJ	.
8b-L	-ge
8aJ	.
=3	=3
(4g	ſel-
4e)	.
4c}	-len,
=4	=4
{8ccL	denn
8ccJ	es
8b-L	kommt
8b-J	die
4a	Ʒeit,
=5	=5
8ccL	die
8ccJ	uns
8b-L	all'
8b-J	er-
4a}	-freut,
=6	=6
{4g	ſie
4g	iſt
4g	ſchon
=7	=7
(4g	da.
2a)}	.
==	==
!!!AGN: Handwerks - Burschen - Lied
!!!ONB: ESAC (Essen Associative Code) Database: ZUCCAL
!!!AMT: simple triple
!!!AIN: vox
!!!EED: Helmut Schaffrath
!!!EEV: 1.0
!!!GTL: III. Soldaten-, Jaeger-, Schiffer-, Fuhrmanns- und Handwerks-Lieder.
!!!URL-scan: https://www.digitale-sammlungen.de/de/view/bsb11160571?page=446
!!!ENC: Anna Maria Matuszewska
!!!EEV: 2025/01/29
*-	*-
